X: 29141
T: Ness Pipers, The
R: reel
M: 4/4
K: Bminor
AAAB BAAG|eAAe Aeed|GGGB BAAG|dBBd GddB|
AAAB BAAG|eAAe Aeed|GGGB BAAG|eddB A2 e2||
AAAe eddB|edde g2 ed|GGGd dBBA|edde eGdB|
AAAe eddB|edde g2 dB|GGGB BAAG|eddB A2 Ae||
.A2 .B2 BAAG|eAAe Aeed|.G2 .B2 BAAG|dBBd GddB|
.A2 .B2 BAAG|eAAe Aeed|GGGB BAAG|eddB A2- A2||
a2 a2 feef|fefg a2 fe|.A2 .c2 cBBA|ecce Afef|
a2 a2 feef|fefg a2 fe|.A2 .c2 cBBA|feec B2 B2||
a2 a2 feff|effe fafe|ffef fefa|ccBc cefe|
a2 a2 feff|effe fafe|A2 c2 cBBA|feec Befe|
a2 a2 feff|effe fafe|ffef fefa|ccBc cefe|
a2 a2 feff|effe a4 -|a4- a4 -|a4- a4|A2 c2 cBBA|feec B4||

